X:119
T:John Barleycorn - Mortimore
%%VWML:SBG-1-2-193-0
F:http://www.vwml.org/record/SBG/1/2/193
Z:Original Sibelius transcriptions by M. & S. Graebe
M:2/4
I:linebreak $
K:C
V:1 treble nm="P1"
V:1
 F | FAAF | EGG F | FAAG | A3 F | FAAG | F(ED)C |$ DFFF | E3 D/C/ | FC C2 | D>CD>E F2 | FAGA | %12
w: ||||||||* Ri- *|fal- lal- la|Ri- fal- de- ri- dol,|Ri- fal- lor- I-|
 F2 x2 | %13
w: day|
T:John Barleycorn - Potter
F:http://www.vwml.org/record/SBG/1/2/193
Z:Original Sibelius transcriptions by M. & S. Graebe
M:4/4
I:linebreak $
K:G
V:1 treble nm="P1"
V:1
 D | G B B B | G B B B | G B B A | B3 B | B B B A | G F E E |$ A A A G | F2 E F | G D/D/ D2 | %10
w: ||||||||* with a|Ri fol de di|
 E/D/ E/F/ G2 | G A/B/ c B | G2 x2 | %13
w: diddle _ fol de dee|ri fol de di- di-|di.|

